brand/assets/globaleaks-logo-white.svg

<?xml version="1.0" encoding="UTF-8" standalone="no"?>
<svg
   xmlns:dc="http://purl.org/dc/elements/1.1/"
   xmlns:cc="http://creativecommons.org/ns#"
   xmlns:rdf="http://www.w3.org/1999/02/22-rdf-syntax-ns#"
   xmlns:svg="http://www.w3.org/2000/svg"
   xmlns="http://www.w3.org/2000/svg"
   xmlns:sodipodi="http://sodipodi.sourceforge.net/DTD/sodipodi-0.dtd"
   xmlns:inkscape="http://www.inkscape.org/namespaces/inkscape"
   width="500"
   height="120"
   viewBox="0 0 500 120"
   version="1.1"
   id="svg26"
   sodipodi:docname="globaleaks-logo-white.svg"
   style="fill:none"
   inkscape:version="0.92.4 (5da689c313, 2019-01-14)"
   inkscape:export-filename="/home/evilaliv3/Development/GlobaLeaks/brand/assets/globaleaks-logo-white.png"
   inkscape:export-xdpi="96"
   inkscape:export-ydpi="96">
  <sodipodi:namedview
     pagecolor="#ffffff"
     bordercolor="#666666"
     borderopacity="1"
     objecttolerance="10"
     gridtolerance="10"
     guidetolerance="10"
     inkscape:pageopacity="0"
     inkscape:pageshadow="2"
     inkscape:window-width="1916"
     inkscape:window-height="1040"
     id="namedview887"
     showgrid="false"
     inkscape:zoom="2.5326087"
     inkscape:cx="231.97425"
     inkscape:cy="40"
     inkscape:window-x="0"
     inkscape:window-y="18"
     inkscape:window-maximized="0"
     inkscape:current-layer="svg26" />
  <metadata
     id="metadata32">
    <rdf:RDF>
      <cc:Work
         rdf:about="">
        <dc:format>image/svg+xml</dc:format>
        <dc:type
           rdf:resource="http://purl.org/dc/dcmitype/StillImage" />
        <dc:title></dc:title>
      </cc:Work>
    </rdf:RDF>
  </metadata>
  <defs
     id="defs30" />
  <g
     id="g902"
     transform="translate(20,-20.00015)">
    <g
       transform="translate(0,40)"
       style="fill:#ffffff"
       id="g859">
      <path
         inkscape:connector-curvature="0"
         style="fill:#ffffff"
         d="m 117.88,43.4762 h 7.707 v 4.5093 c -1.782,1.206 -3.932,1.8876 -6.03,1.8876 -5.61,0 -10.381,-4.8239 -10.381,-10.5391 0,-5.6628 4.771,-10.4866 10.381,-10.4866 3.094,0 6.24,1.4681 8.18,3.88 l 6.554,-5.8201 c -3.67,-3.88 -9.176,-6.1871 -14.734,-6.1871 -10.643,0 -19.5571,8.4942 -19.5571,18.6138 0,10.1196 8.9141,18.6662 19.5571,18.6662 5.558,0 11.064,-2.307 14.734,-6.2395 V 36.7124 H 117.88 Z"
         id="path2" />
      <path
         inkscape:connector-curvature="0"
         style="fill:#ffffff"
         d="M 149.087,49.3488 V 21.3494 h -8.913 V 57.371 h 26.269 v -8.0222 z"
         id="path4" />
      <path
         inkscape:connector-curvature="0"
         style="fill:#ffffff"
         d="m 189.139,58.0002 c 10.539,0 19.401,-8.5466 19.401,-18.6662 0,-10.1196 -8.862,-18.6138 -19.401,-18.6138 -10.486,0 -19.348,8.4942 -19.348,18.6138 0,10.1196 8.862,18.6662 19.348,18.6662 z m 0,-8.1271 c -5.505,0 -10.172,-4.8239 -10.172,-10.5391 0,-5.6628 4.667,-10.4866 10.172,-10.4866 5.506,0 10.172,4.8238 10.172,10.4866 0,5.7152 -4.666,10.5391 -10.172,10.5391 z"
         id="path6" />
      <path
         inkscape:connector-curvature="0"
         style="fill:#ffffff"
         d="m 213.965,57.371 h 19.505 c 7.131,0 12.217,-3.9849 12.217,-9.7525 0,-3.9325 -2.464,-7.3407 -6.606,-9.1759 3.146,-1.5729 4.981,-4.4568 4.981,-8.0222 0,-5.2434 -4.614,-9.071 -11.273,-9.071 h -18.824 z m 8.914,-21.7597 v -6.6591 h 7.707 c 2.465,0 4.248,1.3633 4.248,3.3033 0,1.9401 -1.783,3.3558 -4.248,3.3558 z m 0,14.1569 v -7.2358 h 9.071 c 2.621,0 4.509,1.5206 4.509,3.6179 0,2.0974 -1.888,3.6179 -4.509,3.6179 z"
         id="path8" />
      <path
         inkscape:connector-curvature="0"
         style="fill:#ffffff"
         d="M 276.312,57.371 H 286.38 L 272.118,21.3494 H 262.05 L 247.789,57.371 h 10.067 l 2.097,-5.2433 h 14.262 z m -13.58,-12.2693 4.352,-11.0634 4.352,11.0634 z"
         id="path10" />
      <path
         inkscape:connector-curvature="0"
         style="fill:#ffffff"
         d="M 298.911,49.3488 V 21.3494 h -8.914 V 57.371 h 26.269 v -8.0222 z"
         id="path12" />
      <path
         inkscape:connector-curvature="0"
         style="fill:#ffffff"
         d="M 349.345,29.3717 V 21.3494 H 320.978 V 57.371 h 28.367 v -8.0222 h -19.4 v -6.3445 h 17.617 v -8.0222 h -17.617 v -5.6104 z"
         id="path14" />
      <path
         inkscape:connector-curvature="0"
         style="fill:#ffffff"
         d="m 380.411,57.371 h 10.067 L 376.216,21.3494 H 366.149 L 351.887,57.371 h 10.067 l 2.098,-5.2433 h 14.261 z m -13.58,-12.2693 4.351,-11.0634 4.352,11.0634 z"
         id="path16" />
      <path
         inkscape:connector-curvature="0"
         style="fill:#ffffff"
         d="m 394.306,57.371 h 8.966 v -9.805 l 4.142,-4.4568 10.119,14.2618 h 10.802 L 413.601,36.6599 427.286,21.3494 h -10.644 l -13.37,15.363 v -15.363 h -8.966 z"
         id="path18" />
      <path
         inkscape:connector-curvature="0"
         style="fill:#ffffff"
         d="m 445.581,58.0002 c 8.913,0 14.419,-4.5092 14.419,-11.745 0,-6.7639 -5.191,-9.071 -13.266,-10.8012 -5.348,-1.1536 -7.078,-1.8876 -7.078,-4.0898 0,-1.7828 1.625,-3.146 4.509,-3.146 3.356,0 6.974,1.3108 10.277,3.8276 l 4.562,-6.3969 c -3.828,-3.1984 -8.547,-4.9287 -14.577,-4.9287 -8.232,0 -13.79,4.6141 -13.79,11.5353 0,7.2358 5.715,9.3331 13.423,11.0634 5.243,1.2584 6.921,1.7303 6.921,3.8801 0,1.94 -1.73,3.3033 -5.086,3.3033 -4.404,0 -8.337,-1.6779 -11.85,-4.5617 l -5.033,6.0298 c 4.352,3.9325 10.172,6.0298 16.569,6.0298 z"
         id="path20" />
      <path
         inkscape:connector-curvature="0"
         style="clip-rule:evenodd;fill:#ffffff;fill-rule:evenodd"
         d="m 65.6676,3.05176e-4 h 7.529 c 3.7191,0 6.8033,2.923584824 6.8033,6.644514824 V 73.3558 c 0,3.6323 -2.9934,6.6445 -6.8033,6.6445 H 57.1408 l 5.1705,-14.175 C 62.8556,64.2306 62.0392,62.4588 60.4064,61.9272 60.1343,61.8386 59.8621,61.75 59.59,61.75 c -0.3628,0 -0.635,0 -0.9978,0.0886 -0.9978,0.2658 -1.8142,0.9745 -2.1771,1.9491 l -1.1792,2.9235 V 54.5739 c 0,-1.949 -1.4514,-3.5437 -3.3563,-3.8981 h -0.1814 c -0.1815,0 -0.3629,0 -0.5443,0 -0.1814,0 -0.2721,0 -0.4536,0 -0.0907,0 -0.1814,0 -0.2721,0 -0.0907,0 -0.1814,0 -0.2721,0.0886 -0.0907,0 -0.1814,0.0886 -0.2722,0.0886 h -0.0907 c -0.4535,0.1772 -0.9071,0.443 -1.3606,0.7974 v -0.7088 c 0,-0.9745 -0.4536,-1.8605 -1.0886,-2.5692 -0.0907,-0.0886 -0.1814,-0.1772 -0.1814,-0.1772 -0.1814,-0.1772 -0.4535,-0.3544 -0.7257,-0.5316 v -4.6954 c 0,-0.8859 -0.7256,-1.6833 -1.7235,-1.6833 h -7.3475 c -1.27,0 -2.0864,-1.2403 -1.5421,-2.392 L 50.6096,9.21407 C 53.6031,3.72126 59.4086,0.0888987 65.6676,3.05176e-4 Z M 60.6785,26.667 c 1.9049,0 3.447,-1.5061 3.447,-3.3666 0,-1.8604 -1.5421,-3.3665 -3.447,-3.3665 -1.9049,0 -3.447,1.5061 -3.447,3.3665 0,1.8605 1.5421,3.3666 3.447,3.3666 z"
         id="path22" />
      <path
         inkscape:connector-curvature="0"
         style="clip-rule:evenodd;fill:#ffffff;fill-rule:evenodd"
         d="M 47.8289,8.39103 C 48.668,5.03462 46.1507,0 41.9551,0 H 28.7105 C 22.2974,0 16.5348,3.62367 13.6535,9.38442 L 0.17654,37.0732 c -0.557668,1.115 0.278826,2.4158 1.48711,2.4158 h 5.94846 c 1.11534,0 1.95184,1.0221 1.58006,2.1371 l -1.58006,5.8536 c 0,0.0929 0.09294,0.1859 0.18589,0.1859 4.4613,0 7.9932,3.6236 7.9932,8.0836 v 0.7433 c 0,4.4599 -3.6248,8.0836 -7.9932,8.0836 H 4.63787 c -0.18589,0 -0.46472,0 -0.65061,0 C 3.42959,64.4832 2.87193,64.8549 2.68604,65.4124 0.641261,72.7527 6.125,80 13.6535,80 H 30.7553 V 61.0454 c 0,-1.6725 1.3942,-3.0663 3.0672,-3.0663 h 0.1859 0.0929 c 0.093,0 0.1859,0 0.2789,0 v -3.4378 c 0,-2.137 1.7659,-3.9025 3.9036,-3.9025 1.0224,0 1.9519,0.3716 2.6025,1.0221 v -0.6504 c 0,-1.5796 0.9294,-2.9733 2.3236,-3.5308 v -2.8804 h -5.4837 c -3.6249,0 -5.9485,-3.8095 -4.3684,-7.1544 z M 23.8774,26.7596 c 1.8589,0 3.346,-1.4866 3.346,-3.3449 0,-1.8583 -1.4871,-3.345 -3.346,-3.345 -1.8589,0 -3.346,1.4867 -3.346,3.345 0,1.7654 1.4871,3.3449 3.346,3.3449 z"
         id="path24" />
    </g>
  </g>
</svg>

<?xml version="1.0" encoding="UTF-8" standalone="no"?>
<svg
   xmlns:dc="http://purl.org/dc/elements/1.1/"
   xmlns:cc="http://creativecommons.org/ns#"
   xmlns:rdf="http://www.w3.org/1999/02/22-rdf-syntax-ns#"
   xmlns:svg="http://www.w3.org/2000/svg"
   xmlns="http://www.w3.org/2000/svg"
   width="460"
   height="80"
   viewBox="0 0 460 80"
   version="1.1"
   id="svg26"
   fill="none">
  <metadata
     id="metadata32">
    <rdf:RDF>
      <cc:Work
         rdf:about="">
        <dc:format>image/svg+xml</dc:format>
        <dc:type
           rdf:resource="http://purl.org/dc/dcmitype/StillImage" />
        <dc:title></dc:title>
      </cc:Work>
    </rdf:RDF>
  </metadata>
  <defs
     id="defs30" />
  <g
     id="g859"
     style="fill:#ffffff">
    <path
       id="path2"
       d="M117.88 43.4762H125.587V47.9855C123.805 49.1915 121.655 49.8731 119.557 49.8731C113.947 49.8731 109.176 45.0492 109.176 39.334C109.176 33.6712 113.947 28.8474 119.557 28.8474C122.651 28.8474 125.797 30.3155 127.737 32.7274L134.291 26.9073C130.621 23.0273 125.115 20.7202 119.557 20.7202C108.914 20.7202 99.9999 29.2144 99.9999 39.334C99.9999 49.4536 108.914 58.0002 119.557 58.0002C125.115 58.0002 130.621 55.6932 134.291 51.7607V36.7124H117.88V43.4762Z"
       fill="#103253"
       style="fill:#ffffff" />
    <path
       id="path4"
       d="M149.087 49.3488V21.3494H140.174V57.371H166.443V49.3488H149.087Z"
       fill="#103253"
       style="fill:#ffffff" />
    <path
       id="path6"
       d="M189.139 58.0002C199.678 58.0002 208.54 49.4536 208.54 39.334C208.54 29.2144 199.678 20.7202 189.139 20.7202C178.653 20.7202 169.791 29.2144 169.791 39.334C169.791 49.4536 178.653 58.0002 189.139 58.0002ZM189.139 49.8731C183.634 49.8731 178.967 45.0492 178.967 39.334C178.967 33.6712 183.634 28.8474 189.139 28.8474C194.645 28.8474 199.311 33.6712 199.311 39.334C199.311 45.0492 194.645 49.8731 189.139 49.8731Z"
       fill="#103253"
       style="fill:#ffffff" />
    <path
       id="path8"
       d="M213.965 57.371H233.47C240.601 57.371 245.687 53.3861 245.687 47.6185C245.687 43.686 243.223 40.2778 239.081 38.4426C242.227 36.8697 244.062 33.9858 244.062 30.4204C244.062 25.177 239.448 21.3494 232.789 21.3494H213.965V57.371ZM222.879 35.6113V28.9522H230.586C233.051 28.9522 234.834 30.3155 234.834 32.2555C234.834 34.1956 233.051 35.6113 230.586 35.6113H222.879ZM222.879 49.7682V42.5324H231.95C234.571 42.5324 236.459 44.053 236.459 46.1503C236.459 48.2477 234.571 49.7682 231.95 49.7682H222.879Z"
       fill="#103253"
       style="fill:#ffffff" />
    <path
       id="path10"
       d="M276.312 57.371H286.38L272.118 21.3494H262.05L247.789 57.371H257.856L259.953 52.1277H274.215L276.312 57.371ZM262.732 45.1017L267.084 34.0383L271.436 45.1017H262.732Z"
       fill="#103253"
       style="fill:#ffffff" />
    <path
       id="path12"
       d="M298.911 49.3488V21.3494H289.997V57.371H316.266V49.3488H298.911Z"
       fill="#103253"
       style="fill:#ffffff" />
    <path
       id="path14"
       d="M349.345 29.3717V21.3494H320.978V57.371H349.345V49.3488H329.945V43.0043H347.562V34.9821H329.945V29.3717H349.345Z"
       fill="#103253"
       style="fill:#ffffff" />
    <path
       id="path16"
       d="M380.411 57.371H390.478L376.216 21.3494H366.149L351.887 57.371H361.954L364.052 52.1277H378.313L380.411 57.371ZM366.831 45.1017L371.182 34.0383L375.534 45.1017H366.831Z"
       fill="#103253"
       style="fill:#ffffff" />
    <path
       id="path18"
       d="M394.306 57.371H403.272V47.566L407.414 43.1092L417.533 57.371H428.335L413.601 36.6599L427.286 21.3494H416.642L403.272 36.7124V21.3494H394.306V57.371Z"
       fill="#103253"
       style="fill:#ffffff" />
    <path
       id="path20"
       d="M445.581 58.0002C454.494 58.0002 460 53.491 460 46.2552C460 39.4913 454.809 37.1842 446.734 35.454C441.386 34.3004 439.656 33.5664 439.656 31.3642C439.656 29.5814 441.281 28.2182 444.165 28.2182C447.521 28.2182 451.139 29.529 454.442 32.0458L459.004 25.6489C455.176 22.4505 450.457 20.7202 444.427 20.7202C436.195 20.7202 430.637 25.3343 430.637 32.2555C430.637 39.4913 436.352 41.5886 444.06 43.3189C449.303 44.5773 450.981 45.0492 450.981 47.199C450.981 49.139 449.251 50.5023 445.895 50.5023C441.491 50.5023 437.558 48.8244 434.045 45.9406L429.012 51.9704C433.364 55.9029 439.184 58.0002 445.581 58.0002Z"
       fill="#103253"
       style="fill:#ffffff" />
    <path
       id="path22"
       d="M65.6676 0.000305176H73.1966C76.9157 0.000305176 79.9999 2.92389 79.9999 6.64482V73.3558C79.9999 76.9881 77.0065 80.0003 73.1966 80.0003H57.1408L62.3113 65.8253C62.8556 64.2306 62.0392 62.4588 60.4064 61.9272C60.1343 61.8386 59.8621 61.75 59.59 61.75C59.2272 61.75 58.955 61.75 58.5922 61.8386C57.5944 62.1044 56.778 62.8131 56.4151 63.7877L55.2359 66.7112V54.5739C55.2359 52.6249 53.7845 51.0302 51.8796 50.6758H51.6982C51.5167 50.6758 51.3353 50.6758 51.1539 50.6758C50.9725 50.6758 50.8818 50.6758 50.7003 50.6758C50.6096 50.6758 50.5189 50.6758 50.4282 50.6758C50.3375 50.6758 50.2468 50.6758 50.1561 50.7644C50.0654 50.7644 49.9747 50.853 49.8839 50.853H49.7932C49.3397 51.0302 48.8861 51.296 48.4326 51.6504V50.9416C48.4326 49.9671 47.979 49.0811 47.344 48.3724C47.2533 48.2838 47.1626 48.1952 47.1626 48.1952C46.9812 48.018 46.7091 47.8408 46.4369 47.6636V42.9682C46.4369 42.0823 45.7113 41.2849 44.7134 41.2849H37.3659C36.0959 41.2849 35.2795 40.0446 35.8238 38.8929L50.6096 9.21407C53.6031 3.72126 59.4086 0.0888987 65.6676 0.000305176ZM60.6785 26.667C62.5834 26.667 64.1255 25.1609 64.1255 23.3004C64.1255 21.44 62.5834 19.9339 60.6785 19.9339C58.7736 19.9339 57.2315 21.44 57.2315 23.3004C57.2315 25.1609 58.7736 26.667 60.6785 26.667Z"
       clip-rule="evenodd"
       fill-rule="evenodd"
       fill="#103253"
       style="fill:#ffffff" />
    <path
       id="path24"
       d="M47.8289 8.39103C48.668 5.03462 46.1507 0 41.9551 0H28.7105C22.2974 0 16.5348 3.62367 13.6535 9.38442L0.17654 37.0732C-0.381128 38.1882 0.455366 39.489 1.66365 39.489H7.61211C8.72745 39.489 9.56395 40.5111 9.19217 41.6261L7.61211 47.4797C7.61211 47.5726 7.70505 47.6656 7.798 47.6656C12.2593 47.6656 15.7912 51.2892 15.7912 55.7492V56.4925C15.7912 60.9524 12.1664 64.5761 7.798 64.5761H4.63787C4.45198 64.5761 4.17315 64.5761 3.98726 64.5761C3.42959 64.4832 2.87193 64.8549 2.68604 65.4124C0.641261 72.7527 6.125 80 13.6535 80H30.7553V61.0454C30.7553 59.3729 32.1495 57.9791 33.8225 57.9791H34.0084H34.1013C34.1943 57.9791 34.2872 57.9791 34.3802 57.9791V54.5413C34.3802 52.4043 36.1461 50.6388 38.2838 50.6388C39.3062 50.6388 40.2357 51.0104 40.8863 51.6609V51.0105C40.8863 49.4309 41.8157 48.0372 43.2099 47.4797V44.5993H37.7262C34.1013 44.5993 31.7777 40.7898 33.3578 37.4449L47.8289 8.39103ZM23.8774 26.7596C25.7363 26.7596 27.2234 25.273 27.2234 23.4147C27.2234 21.5564 25.7363 20.0697 23.8774 20.0697C22.0185 20.0697 20.5314 21.5564 20.5314 23.4147C20.5314 25.1801 22.0185 26.7596 23.8774 26.7596Z"
       clip-rule="evenodd"
       fill-rule="evenodd"
       fill="#377ABC"
       style="fill:#ffffff" />
  </g>
</svg>
